X:1
T:[ID 1-78b]
T:[ID 1-78b]
T:Bezeichnung standardisiert: Menuett Men. 2
T:Urheber unbekannt Datum in der hier transkribierten schriftlichen Quelle: vermutlich vor 1767
C:Urheber unbekannt
C:Datum in der hier transkribierten schriftlichen Quelle: vermutlich vor 1767
%%score ( 1 2 )
L:1/8
M:3/4
K:D
V:1 treble 
V:2 treble 
V:1
 d2 d2 d2 | de f4 | ec A2 G2 | FA a4 | ec A2 G2 | FA a4 | gbegfd | e6 :: A2 A2 A2 | AG G4 | %10
 G2 G2 G2 | GE"^fisS" G4 | d2 d2 d2 | dbagfe | fgaABc | d6 :| %16
V:2
 x6 | x6 | x6 | x6 | x6 | x6 | x6 | x6 :: A2 A2 A2 | x6 | x6 | x6 | x6 | x6 | x6 | x6 :| %16

